X:56
T: Die wiedergefundene Schwester
N: D0060
O: Europa, Mitteleuropa, Lothringen, Hambach
N: Inzipit = Variante zum Lied
R: Ballade, Familie, Wiederfinden von Familienangehoerigen
M: 3/4
L: 1/16
K: F
C4 | F4F4F2F2 | G4G4A2A2 | B12 | F4z4
A2B2 | c6d2c4 | G4G4c4 | c4B4A4 | G4z4
c3B | A4G4A4 | F4F4A4 | F4G4A4 | G4z4
G4 | F4F4d4 | c6B2A2c2 | c2B2A4G4 | F4z4
G4 | F4F4d4 | c6B2A2c2 | c2B2A4G4 | F4z4

@@@ Tune index: 2578
